public/icons/bin.svg

<svg width="60" height="60" viewBox="0 0 60 60" fill="none" xmlns="http://www.w3.org/2000/svg">
<path d="M9.50752 14C9.38464 12.8656 9.50206 11.7181 9.85214 10.6321C10.2022 9.54618 10.7771 8.54612 11.5393 7.69709C12.3016 6.84805 13.2341 6.16908 14.2762 5.70439C15.3183 5.23969 16.4465 4.99968 17.5875 5H42.4125C43.5533 5.00004 44.6813 5.2403 45.7231 5.70515C46.7649 6.17 47.6971 6.84902 48.459 7.69802C49.221 8.54701 49.7957 9.54695 50.1456 10.6327C50.4955 11.7185 50.6129 12.8658 50.49 14L46.6 49.9775C46.4514 51.357 45.7982 52.6329 44.7659 53.56C43.7336 54.4871 42.395 55 41.0075 55H18.99C17.6029 55 16.2647 54.4875 15.2324 53.561C14.2002 52.6344 13.5467 51.3591 13.3975 49.98L9.50752 14ZM13.2575 12.4925H46.7425C46.5906 11.4526 46.0694 10.5022 45.2744 9.81502C44.4793 9.12782 43.4634 8.74977 42.4125 8.75H17.5875C15.3625 8.75 13.56 10.4 13.2575 12.4925ZM29.48 26.0225C29.5372 25.9374 29.6144 25.8677 29.7049 25.8195C29.7953 25.7713 29.8963 25.7461 29.9988 25.7461C30.1013 25.7461 30.2022 25.7713 30.2927 25.8195C30.3831 25.8677 30.4603 25.9374 30.5175 26.0225L32.1925 28.5225C32.3259 28.735 32.5005 28.9185 32.7061 29.0622C32.9117 29.206 33.144 29.307 33.3893 29.3593C33.6347 29.4117 33.888 29.4143 34.1344 29.3669C34.3807 29.3196 34.615 29.2233 34.8235 29.0838C35.032 28.9442 35.2103 28.7643 35.348 28.5546C35.4856 28.3449 35.5798 28.1097 35.625 27.863C35.6701 27.6162 35.6652 27.3629 35.6107 27.1181C35.5562 26.8732 35.4531 26.6418 35.3075 26.4375L33.635 23.9375C33.2353 23.3394 32.6942 22.849 32.0597 22.5099C31.4253 22.1708 30.7169 21.9934 29.9975 21.9934C29.2781 21.9934 28.5698 22.1708 27.9353 22.5099C27.3008 22.849 26.7598 23.3394 26.36 23.9375L24.69 26.4375C24.4135 26.8509 24.3126 27.3572 24.4094 27.845C24.5062 28.3329 24.7929 28.7623 25.2063 29.0388C25.6197 29.3152 26.126 29.4162 26.6138 29.3194C27.1016 29.2225 27.531 28.9359 27.8075 28.5225L29.48 26.0225ZM24.73 34.07C24.8596 33.8588 24.9461 33.624 24.9845 33.3792C25.0228 33.1344 25.0123 32.8845 24.9534 32.6438C24.8946 32.4031 24.7886 32.1764 24.6416 31.9769C24.4946 31.7774 24.3096 31.6091 24.0971 31.4815C23.8847 31.354 23.649 31.2698 23.4039 31.2339C23.1587 31.198 22.9088 31.211 22.6687 31.2723C22.4286 31.3335 22.203 31.4417 22.005 31.5906C21.807 31.7396 21.6404 31.9263 21.515 32.14L20.605 33.6575C18.605 36.99 21.005 41.2325 24.8925 41.2325H26.8725C27.3698 41.2325 27.8467 41.035 28.1983 40.6833C28.55 40.3317 28.7475 39.8548 28.7475 39.3575C28.7475 38.8602 28.55 38.3833 28.1983 38.0317C27.8467 37.68 27.3698 37.4825 26.8725 37.4825H24.8925C24.671 37.4828 24.4533 37.4242 24.2619 37.3128C24.0704 37.2013 23.912 37.041 23.8029 36.8482C23.6938 36.6554 23.6379 36.437 23.6409 36.2155C23.6439 35.994 23.7057 35.7773 23.82 35.5875L24.73 34.07ZM35.915 31.495C35.7034 31.6215 35.5188 31.7886 35.3718 31.9865C35.2248 32.1845 35.1183 32.4095 35.0584 32.6487C34.9985 32.8879 34.9863 33.1365 35.0226 33.3804C35.059 33.6243 35.143 33.8586 35.27 34.07L36.18 35.5875C36.2937 35.7772 36.355 35.9937 36.3577 36.2148C36.3604 36.436 36.3043 36.6539 36.1953 36.8463C36.0862 37.0387 35.9281 37.1988 35.737 37.3101C35.5459 37.4214 35.3287 37.48 35.1075 37.48H33.1225C32.6252 37.48 32.1483 37.6775 31.7967 38.0292C31.4451 38.3808 31.2475 38.8577 31.2475 39.355C31.2475 39.8523 31.4451 40.3292 31.7967 40.6808C32.1483 41.0325 32.6252 41.23 33.1225 41.23H35.1075C38.9925 41.23 41.395 36.9925 39.3975 33.66L38.4875 32.1425C38.361 31.9312 38.1941 31.7469 37.9963 31.6001C37.7985 31.4534 37.5738 31.347 37.3349 31.2871C37.096 31.2272 36.8476 31.2149 36.604 31.251C36.3604 31.2871 36.1263 31.3709 35.915 31.4975" fill="#132136"/>
</svg>

<svg xmlns="http://www.w3.org/2000/svg" width="60" height="60" fill="none"><path fill="#132136" d="M9.508 14a8.125 8.125 0 0 1 8.08-9h24.825a8.125 8.125 0 0 1 8.077 9L46.6 49.978A5.625 5.625 0 0 1 41.007 55H18.99a5.626 5.626 0 0 1-5.592-5.02zm3.75-1.508h33.485a4.375 4.375 0 0 0-4.33-3.742H17.588a4.376 4.376 0 0 0-4.33 3.742m16.222 13.53a.625.625 0 0 1 1.037 0l1.676 2.5a1.874 1.874 0 1 0 3.114-2.084l-1.672-2.5a4.375 4.375 0 0 0-7.275 0l-1.67 2.5a1.875 1.875 0 1 0 3.117 2.085zm-4.75 8.048a1.877 1.877 0 0 0-1.326-2.836 1.87 1.87 0 0 0-1.889.906l-.91 1.517c-2 3.333.4 7.576 4.287 7.576h1.98a1.875 1.875 0 1 0 0-3.75h-1.98a1.25 1.25 0 0 1-1.072-1.895zm11.185-2.575a1.876 1.876 0 0 0-.645 2.575l.91 1.517a1.25 1.25 0 0 1-1.072 1.893h-1.985a1.875 1.875 0 1 0 0 3.75h1.985c3.885 0 6.287-4.237 4.29-7.57l-.91-1.517a1.875 1.875 0 0 0-2.573-.646"/></svg>
